assets/images/card/truck.svg

<svg width="30" height="18" viewBox="0 0 30 18" fill="none" xmlns="http://www.w3.org/2000/svg">
<path d="M24.3633 7.5C24.0181 7.5 23.7383 7.77981 23.7383 8.125V11.25C23.7383 11.5951 24.0181 11.875 24.3633 11.875H27.4883C27.8334 11.875 28.1133 11.5951 28.1133 11.25C28.1133 9.18225 26.431 7.5 24.3633 7.5ZM24.9883 10.625V8.82912C25.8655 9.05569 26.5575 9.74775 26.7842 10.625H24.9883Z" fill="#0029FF"/>
<path d="M25.0208 5.625H21.875C21.5298 5.625 21.25 5.90481 21.25 6.25V14.375H18.75V0.625C18.75 0.279813 18.4701 0 18.125 0H0.625C0.279813 0 0 0.279813 0 0.625V15C0 15.3451 0.279813 15.625 0.625 15.625H2.57912C2.85737 16.702 3.83725 17.5 5 17.5C6.16275 17.5 7.14262 16.702 7.42087 15.625C8.382 15.625 22.6129 15.625 23.2041 15.625C23.4823 16.702 24.4622 17.5 25.6249 17.5C26.7877 17.5 27.7676 16.702 28.0458 15.625H29.375C29.7201 15.625 30 15.3451 30 15V10.6042C30 7.85862 27.7664 5.625 25.0208 5.625ZM5 16.25C4.31075 16.25 3.75 15.6892 3.75 15C3.75 14.3108 4.31075 13.75 5 13.75C5.68925 13.75 6.25 14.3108 6.25 15C6.25 15.6892 5.68925 16.25 5 16.25ZM7.42087 14.375C7.26312 13.7643 6.87169 13.2165 6.294 12.8617C4.87019 11.9963 2.99819 12.7525 2.57912 14.375H1.25V1.25H17.5V14.375H7.42087ZM25.625 16.25C24.9357 16.25 24.375 15.6892 24.375 15C24.375 14.3108 24.9357 13.75 25.625 13.75C26.3142 13.75 26.875 14.3108 26.875 15C26.875 15.6892 26.3142 16.25 25.625 16.25ZM28.75 14.375H28.0459C27.9078 13.8403 27.585 13.3413 27.1059 12.9874C25.6707 11.9279 23.6411 12.6858 23.2041 14.375H22.5V6.875H25.0208C27.0771 6.875 28.75 8.54794 28.75 10.6042V14.375Z" fill="#0029FF"/>
<path d="M13.125 4.375H6.25C5.90481 4.375 5.625 4.65481 5.625 5C5.625 5.34519 5.90481 5.625 6.25 5.625H13.125C13.4702 5.625 13.75 5.34519 13.75 5C13.75 4.65481 13.4702 4.375 13.125 4.375Z" fill="#0029FF"/>
<path d="M11.875 8.125H5C4.65481 8.125 4.375 8.40481 4.375 8.75C4.375 9.09519 4.65481 9.375 5 9.375H11.875C12.2202 9.375 12.5 9.09519 12.5 8.75C12.5 8.40481 12.2202 8.125 11.875 8.125Z" fill="#0029FF"/>
</svg>

<svg width="30" height="18" fill="none" xmlns="http://www.w3.org/2000/svg"><path d="M24.363 7.5a.625.625 0 00-.625.625v3.125c0 .345.28.625.625.625h3.125c.345 0 .625-.28.625-.625a3.754 3.754 0 00-3.75-3.75zm.625 3.125V8.829a2.51 2.51 0 011.796 1.796h-1.796z" fill="#0029FF"/><path d="M25.02 5.625h-3.145a.625.625 0 00-.625.625v8.125h-2.5V.625A.625.625 0 0018.125 0H.625A.625.625 0 000 .625V15c0 .345.28.625.625.625h1.954A2.505 2.505 0 005 17.5a2.505 2.505 0 002.42-1.875h15.784a2.504 2.504 0 002.42 1.875 2.505 2.505 0 002.422-1.875h1.329c.345 0 .625-.28.625-.625v-4.396a4.985 4.985 0 00-4.98-4.979zM5 16.25a1.25 1.25 0 110-2.5 1.25 1.25 0 010 2.5zm2.42-1.875a2.515 2.515 0 00-1.126-1.513c-1.424-.866-3.296-.11-3.715 1.513H1.25V1.25H17.5v13.125H7.42zm18.205 1.875a1.25 1.25 0 110-2.5 1.25 1.25 0 010 2.5zm3.125-1.875h-.704a2.511 2.511 0 00-.94-1.388c-1.435-1.06-3.465-.301-3.902 1.388H22.5v-7.5h2.52a3.733 3.733 0 013.73 3.73v3.77z" fill="#0029FF"/><path d="M13.125 4.375H6.25a.625.625 0 100 1.25h6.875a.625.625 0 100-1.25zm-1.25 3.75H5a.625.625 0 100 1.25h6.875a.625.625 0 100-1.25z" fill="#0029FF"/></svg>
